build/Karasa-Jaga/scalable/actions/view-sort-ascending-symbolic.svg

<svg height="16" viewBox="0 0 16 16" width="16" xmlns="http://www.w3.org/2000/svg"><g fill="#bebebe" transform="translate(-.431455)"><path d="m10.149414 1.1191398v12.0859382l-1.9726558-1.824219-.6445315.695312 2.9218753 2.703125h.339843l2.921875-2.703125-.644531-.695312-1.972656 1.824219v-12.0859382z"/><path d="m4.3013867 1.347656a1.1525424 1.1525424 0 0 0 -1.1542969 1.1523438 1.1525424 1.1525424 0 0 0 1.1542969 1.1523437 1.1525424 1.1525424 0 0 0 1.1523437-1.1523437 1.1525424 1.1525424 0 0 0 -1.1523437-1.1523438zm0 5.5a1.1525424 1.1525424 0 0 0 -1.1542969 1.1523438 1.1525424 1.1525424 0 0 0 1.1542969 1.1523437 1.1525424 1.1525424 0 0 0 1.1523437-1.1523437 1.1525424 1.1525424 0 0 0 -1.1523437-1.1523438zm0 5.5a1.1525424 1.1525424 0 0 0 -1.1542969 1.152344 1.1525424 1.1525424 0 0 0 1.1542969 1.152344 1.1525424 1.1525424 0 0 0 1.1523437-1.152344 1.1525424 1.1525424 0 0 0 -1.1523437-1.152344z"/></g></svg>

<?xml version="1.0" encoding="UTF-8" standalone="no"?>
<!-- Created with Inkscape (http://www.inkscape.org/) -->

<svg
   xmlns:dc="http://purl.org/dc/elements/1.1/"
   xmlns:cc="http://creativecommons.org/ns#"
   xmlns:rdf="http://www.w3.org/1999/02/22-rdf-syntax-ns#"
   xmlns:svg="http://www.w3.org/2000/svg"
   xmlns="http://www.w3.org/2000/svg"
   xmlns:sodipodi="http://sodipodi.sourceforge.net/DTD/sodipodi-0.dtd"
   xmlns:inkscape="http://www.inkscape.org/namespaces/inkscape"
   version="1.1"
   id="svg2"
   width="16"
   height="16"
   viewBox="0 0 16 16"
   sodipodi:docname="view-sort-ascending-symbolic.svg"
   inkscape:version="0.92.2 (unknown)">
  <metadata
     id="metadata8">
    <rdf:RDF>
      <cc:Work
         rdf:about="">
        <dc:format>image/svg+xml</dc:format>
        <dc:type
           rdf:resource="http://purl.org/dc/dcmitype/StillImage" />
        <dc:title></dc:title>
      </cc:Work>
    </rdf:RDF>
  </metadata>
  <defs
     id="defs6" />
  <sodipodi:namedview
     pagecolor="#ffffff"
     bordercolor="#666666"
     borderopacity="1"
     objecttolerance="10"
     gridtolerance="10"
     guidetolerance="10"
     inkscape:pageopacity="0"
     inkscape:pageshadow="2"
     inkscape:window-width="1317"
     inkscape:window-height="716"
     id="namedview4"
     showgrid="false"
     inkscape:zoom="10.429825"
     inkscape:cx="1.8030426"
     inkscape:cy="-1.0172126"
     inkscape:window-x="49"
     inkscape:window-y="27"
     inkscape:window-maximized="1"
     inkscape:current-layer="svg2" />
  <g
     id="g1423"
     transform="translate(-0.4314549)">
    <path
       sodipodi:nodetypes="ccccccccccc"
       inkscape:connector-curvature="0"
       id="rect828"
       d="M 10.149414,1.1191398 V 13.205078 l -1.9726558,-1.824219 -0.6445315,0.695312 2.9218753,2.703125 h 0.339843 l 2.921875,-2.703125 -0.644531,-0.695312 -1.972656,1.824219 V 1.1191398 Z"
       style="opacity:1;fill:#bebebe;fill-opacity:1;stroke:none;stroke-width:0.93206781" />
    <path
       inkscape:connector-curvature="0"
       id="path1412"
       d="M 4.3013867,1.347656 A 1.1525424,1.1525424 0 0 0 3.1470898,2.4999998 1.1525424,1.1525424 0 0 0 4.3013867,3.6523435 1.1525424,1.1525424 0 0 0 5.4537304,2.4999998 1.1525424,1.1525424 0 0 0 4.3013867,1.347656 Z m 0,5.5 A 1.1525424,1.1525424 0 0 0 3.1470898,7.9999998 1.1525424,1.1525424 0 0 0 4.3013867,9.1523435 1.1525424,1.1525424 0 0 0 5.4537304,7.9999998 1.1525424,1.1525424 0 0 0 4.3013867,6.847656 Z m 0,5.5 A 1.1525424,1.1525424 0 0 0 3.1470898,13.5 1.1525424,1.1525424 0 0 0 4.3013867,14.652344 1.1525424,1.1525424 0 0 0 5.4537304,13.5 1.1525424,1.1525424 0 0 0 4.3013867,12.347656 Z"
       style="opacity:1;fill:#bebebe;fill-opacity:1;stroke:none;stroke-width:0.77272725" />
  </g>
</svg>
